icons/editor-image-indent-left-filled.svg

<svg width="25" height="24" viewBox="0 0 25 24" fill="none" xmlns="http://www.w3.org/2000/svg">
<g id="image-indent-left">
<path id="Icon" d="M3.15039 3.59961L22.3504 3.59961M13.9504 8.79961L22.3504 8.79961M13.9504 13.9996L22.3504 13.9996M3.15039 19.1996H22.3504M4.35039 14.3996H7.95039C8.61313 14.3996 9.15039 13.8624 9.15039 13.1996V9.59961C9.15039 8.93687 8.61313 8.39961 7.95039 8.39961H4.35039C3.68765 8.39961 3.15039 8.93687 3.15039 9.59961V13.1996C3.15039 13.8624 3.68765 14.3996 4.35039 14.3996Z" stroke="black" stroke-width="2" stroke-linecap="round" stroke-linejoin="round"/>
</g>
</svg>

<svg xmlns="http://www.w3.org/2000/svg" width="25" height="24" fill="none" viewBox="0 0 25 24"><path stroke="currentColor" stroke-linecap="round" stroke-linejoin="round" stroke-width="2" d="M3.15 3.6h19.2m-8.4 5.2h8.4m-8.4 5.2h8.4m-19.2 5.2h19.2m-18-4.8h3.6a1.2 1.2 0 0 0 1.2-1.2V9.6a1.2 1.2 0 0 0-1.2-1.2h-3.6a1.2 1.2 0 0 0-1.2 1.2v3.6a1.2 1.2 0 0 0 1.2 1.2"/></svg>
